icons/lego.svg

<svg width="24" height="24" viewBox="0 0 24 24" fill="none" xmlns="http://www.w3.org/2000/svg">
<path fill-rule="evenodd" clip-rule="evenodd" d="M6.5 2C6.5 1.44772 6.94772 1 7.5 1H16.5C17.0523 1 17.5 1.44772 17.5 2V3.22222H17.625C18.7813 3.22222 19.8928 3.67579 20.7142 4.48705C21.536 5.29872 22 6.40225 22 7.55556V17.5556C22 18.7089 21.536 19.8124 20.7142 20.6241C20.1338 21.1973 19.4086 21.592 18.625 21.7742V22C18.625 22.5523 18.1773 23 17.625 23H6.375C5.82272 23 5.375 22.5523 5.375 22V21.7742C4.59145 21.592 3.86622 21.1973 3.28581 20.6241C2.46399 19.8124 2 18.7089 2 17.5556V7.55556C2 6.40225 2.46399 5.29872 3.28581 4.48705C4.10721 3.67579 5.21866 3.22222 6.375 3.22222H6.5V2ZM7.375 21H16.625V20.8889C16.625 20.3366 17.0727 19.8889 17.625 19.8889C18.2589 19.8889 18.8643 19.6401 19.3088 19.2011C19.7528 18.7625 20 18.1704 20 17.5556V7.55556C20 6.94075 19.7528 6.34859 19.3088 5.91002C18.8643 5.47104 18.2589 5.22222 17.625 5.22222H16.5C15.9477 5.22222 15.5 4.77451 15.5 4.22222V3H8.5V4.22222C8.5 4.77451 8.05228 5.22222 7.5 5.22222H6.375C5.74113 5.22222 5.13569 5.47103 4.69122 5.91002C4.24717 6.34859 4 6.94075 4 7.55556V17.5556C4 18.1704 4.24717 18.7625 4.69122 19.2011C5.13569 19.6401 5.74113 19.8889 6.375 19.8889C6.92728 19.8889 7.375 20.3366 7.375 20.8889V21ZM8.1875 10.8889C8.1875 10.3366 8.63522 9.88889 9.1875 9.88889H9.19875C9.75104 9.88889 10.1988 10.3366 10.1988 10.8889C10.1988 11.4412 9.75104 11.8889 9.19875 11.8889H9.1875C8.63522 11.8889 8.1875 11.4412 8.1875 10.8889ZM13.8125 10.8889C13.8125 10.3366 14.2602 9.88889 14.8125 9.88889H14.8238C15.376 9.88889 15.8238 10.3366 15.8238 10.8889C15.8238 11.4412 15.376 11.8889 14.8238 11.8889H14.8125C14.2602 11.8889 13.8125 11.4412 13.8125 10.8889ZM8.48322 14.6234C8.8753 14.2344 9.50846 14.237 9.89743 14.6291C10.1703 14.9042 10.4968 15.1234 10.858 15.2733C11.2192 15.4232 11.6075 15.5006 12 15.5006C12.3925 15.5006 12.7808 15.4232 13.142 15.2733C13.5032 15.1234 13.8297 14.9042 14.1026 14.6291C14.4915 14.237 15.1247 14.2344 15.5168 14.6234C15.9089 15.0124 15.9114 15.6455 15.5224 16.0376C15.0621 16.5016 14.5134 16.8696 13.9087 17.1205C13.304 17.3715 12.6551 17.5006 12 17.5006C11.3449 17.5006 10.696 17.3715 10.0913 17.1205C9.48663 16.8696 8.93789 16.5016 8.47757 16.0376C8.08861 15.6455 8.09114 15.0124 8.48322 14.6234Z" fill="black"/>
</svg>

<svg
  width="24"
  height="24"
  viewBox="0 0 24 24"
  xmlns="http://www.w3.org/2000/svg"
>
  <path
    fill-rule="evenodd"
    clip-rule="evenodd"
    d="M6.5 2a1 1 0 0 1 1-1h9a1 1 0 0 1 1 1v1.222h.125c1.156 0 2.268.454 3.09 1.265A4.313 4.313 0 0 1 22 7.556v10a4.313 4.313 0 0 1-1.286 3.068 4.386 4.386 0 0 1-2.089 1.15V22a1 1 0 0 1-1 1H6.375a1 1 0 0 1-1-1v-.226a4.386 4.386 0 0 1-2.09-1.15A4.313 4.313 0 0 1 2 17.556v-10c0-1.154.464-2.257 1.286-3.069a4.397 4.397 0 0 1 3.089-1.265H6.5V2zm.875 19h9.25v-.111a1 1 0 0 1 1-1c.634 0 1.24-.249 1.684-.688.444-.439.691-1.03.691-1.645v-10c0-.615-.247-1.207-.691-1.646a2.397 2.397 0 0 0-1.684-.688H16.5a1 1 0 0 1-1-1V3h-7v1.222a1 1 0 0 1-1 1H6.375c-.634 0-1.24.249-1.684.688A2.313 2.313 0 0 0 4 7.556v10c0 .614.247 1.206.691 1.645.445.44 1.05.688 1.684.688a1 1 0 0 1 1 1V21zm.813-10.111a1 1 0 0 1 1-1h.01a1 1 0 1 1 0 2h-.01a1 1 0 0 1-1-1zm5.624 0a1 1 0 0 1 1-1h.012a1 1 0 0 1 0 2h-.011a1 1 0 0 1-1-1zm-5.329 3.734a1 1 0 0 1 1.414.006 2.98 2.98 0 0 0 4.205 0 1 1 0 1 1 1.42 1.409 4.939 4.939 0 0 1-1.613 1.082 4.98 4.98 0 0 1-5.431-1.082 1 1 0 0 1 .005-1.415z"
  />
</svg>
